!!!SOCIAL_FUNCTION:	miscellaneous songs
!!!PDT:	1958
!!!OTL: No_52_A_Goose_Laments_His_Lost_Brother.krn
!!!REG: Northern California
!!!LANG: Non-Tone
!!!LING_GROUP: Penutian
**kern
*staff1
=1-
*clefF4
*k[b-e-]
*M2/4
8F\L
8F\J
8F\
16r
16F\
=2
16F\LL
16F\J
8G\J
8G\L
16F\Jk
16r
=3!|:
8c\L
8c\J
8.B-\L
16G\Jk
=4
16F\LL
16F\
16G\
16G\JJ
16G\LL
16G\
16F\JJ
16r
=5
8G\L
8G\J
8.F\L
16E-\Jk
=6
16D\LL
16F\
16F\
16F\JJ
16F\LL
16F\
16F\JJ
16r
=7
8F\L
8F\J
8.F\L
16F\Jk
=8
16F\LL
16F\J
8G\J
8G\
8r
==:|!
*-
